icons/evolvere-blue-folders-flat-vivid-dark-fallback/apps/64/korgac.svg

<?xml version="1.0" encoding="UTF-8" standalone="no"?>
<!-- Created with Inkscape (http://www.inkscape.org/) -->

<svg
   xmlns:dc="http://purl.org/dc/elements/1.1/"
   xmlns:cc="http://creativecommons.org/ns#"
   xmlns:rdf="http://www.w3.org/1999/02/22-rdf-syntax-ns#"
   xmlns:svg="http://www.w3.org/2000/svg"
   xmlns="http://www.w3.org/2000/svg"
   xmlns:xlink="http://www.w3.org/1999/xlink"
   xmlns:sodipodi="http://sodipodi.sourceforge.net/DTD/sodipodi-0.dtd"
   xmlns:inkscape="http://www.inkscape.org/namespaces/inkscape"
   width="64"
   height="64"
   id="svg13094"
   version="1.1"
   inkscape:version="0.48.4 r9939"
   sodipodi:docname="korgac.svg">
  <sodipodi:namedview
     id="base"
     pagecolor="#ffffff"
     bordercolor="#666666"
     borderopacity="1.0"
     inkscape:pageopacity="0"
     inkscape:pageshadow="2"
     inkscape:zoom="11.313709"
     inkscape:cx="37.235991"
     inkscape:cy="26.909825"
     inkscape:document-units="px"
     inkscape:current-layer="svg13094"
     showgrid="true"
     inkscape:snap-bbox="true"
     inkscape:bbox-paths="true"
     inkscape:bbox-nodes="true"
     inkscape:snap-bbox-edge-midpoints="true"
     inkscape:snap-bbox-midpoints="true"
     inkscape:object-paths="true"
     inkscape:snap-intersection-paths="true"
     inkscape:object-nodes="true"
     inkscape:snap-smooth-nodes="true"
     inkscape:snap-midpoints="true"
     inkscape:snap-object-midpoints="true"
     inkscape:snap-center="true"
     showguides="false"
     inkscape:guide-bbox="true"
     inkscape:window-width="1920"
     inkscape:window-height="1025"
     inkscape:window-x="-2"
     inkscape:window-y="32"
     inkscape:window-maximized="1"
     inkscape:snap-global="true"
     fit-margin-top="0"
     fit-margin-left="0"
     fit-margin-right="0"
     fit-margin-bottom="0"
     showborder="true"
     inkscape:showpageshadow="false"
     inkscape:snap-page="false">
    <inkscape:grid
       type="xygrid"
       id="grid3075"
       empspacing="5"
       visible="true"
       enabled="true"
       snapvisiblegridlinesonly="true"
       originx="1.6362304e-08px"
       originy="18px" />
    <sodipodi:guide
       orientation="0,1"
       position="-11,30"
       id="guide9148" />
    <sodipodi:guide
       orientation="1,0"
       position="32,70"
       id="guide9150" />
  </sodipodi:namedview>
  <defs
     id="defs13096">
    <linearGradient
       x1="31"
       y1="64"
       x2="31"
       y2="2"
       id="linearGradient3984-8-7-3-8-4"
       gradientUnits="userSpaceOnUse"
       gradientTransform="matrix(0.82258065,0,0,0.82258065,6.354839,8.5887097)">
      <stop
         id="stop3099-1-3-0-1-3"
         style="stop-color:#ebebeb;stop-opacity:1"
         offset="0" />
      <stop
         id="stop3875-7-3-2-0-1"
         style="stop-color:#ebebeb;stop-opacity:1;"
         offset="0.5" />
      <stop
         id="stop3873-1-0-8-5-5"
         style="stop-color:#d6d6d6;stop-opacity:1"
         offset="0.50287074" />
      <stop
         id="stop3101-06-4-6-6-8"
         style="stop-color:#d6d6d6;stop-opacity:1"
         offset="1" />
    </linearGradient>
    <linearGradient
       inkscape:collect="always"
       xlink:href="#linearGradient3984-8-7-3-8-4"
       id="linearGradient3165"
       gradientUnits="userSpaceOnUse"
       gradientTransform="translate(-3117.6016,-1600.2279)"
       x1="3113.439"
       y1="1659.2279"
       x2="3113.439"
       y2="1615.2279" />
  </defs>
  <metadata
     id="metadata13099">
    <rdf:RDF>
      <cc:Work
         rdf:about="">
        <dc:format>image/svg+xml</dc:format>
        <dc:type
           rdf:resource="http://purl.org/dc/dcmitype/StillImage" />
        <dc:title />
      </cc:Work>
    </rdf:RDF>
  </metadata>
  <path
     style="color:#000000;fill:#48872b;fill-opacity:1;fill-rule:nonzero;stroke:none;stroke-width:2.28571415;marker:none;visibility:visible;display:inline;overflow:visible;enable-background:accumulate"
     d="M 1.6362304e-8,11 64,11 64,61 61,64 3,64 1.6362304e-8,61 z"
     id="rect4519"
     inkscape:connector-curvature="0"
     sodipodi:nodetypes="ccccccc" />
  <g
     id="g3167">
    <path
       inkscape:connector-curvature="0"
       style="color:#000000;fill:#1c5500;fill-opacity:0.21466908;fill-rule:nonzero;stroke:none;stroke-width:1;marker:none;visibility:visible;display:inline;overflow:visible;enable-background:accumulate"
       d="m 6,15 0,44 24,0 33,2 -3,-7 0,-39 z"
       id="path4575-4"
       sodipodi:nodetypes="ccccccc" />
    <path
       sodipodi:nodetypes="ccccc"
       id="path4590-5"
       d="m 5,14 0,44 54,0 0,-44 z"
       style="color:#000000;fill:#bcbcbc;fill-opacity:1;fill-rule:nonzero;stroke:none;stroke-width:1;marker:none;visibility:visible;display:inline;overflow:visible;enable-background:accumulate"
       inkscape:connector-curvature="0" />
    <path
       sodipodi:nodetypes="cccccc"
       id="path4577-8"
       d="m 5,15 0,44 25,0 29,-6 0,-38 z"
       style="color:#000000;fill:url(#linearGradient3165);fill-opacity:1;fill-rule:nonzero;stroke:none;stroke-width:1;marker:none;visibility:visible;display:inline;overflow:visible;enable-background:accumulate"
       inkscape:connector-curvature="0" />
    <path
       sodipodi:nodetypes="cccc"
       inkscape:connector-curvature="0"
       id="path3014-1-1"
       d="M 59,53 30,59 58,52 z"
       style="color:#000000;fill:#a6a6a6;fill-opacity:1;fill-rule:nonzero;stroke:none;stroke-width:1;marker:none;visibility:visible;display:inline;overflow:visible;enable-background:accumulate" />
  </g>
  <path
     sodipodi:nodetypes="cccccc"
     inkscape:connector-curvature="0"
     style="color:#000000;fill:#4fa728;fill-opacity:1;fill-rule:nonzero;stroke:none;stroke-width:2.28571415000000000;marker:none;visibility:visible;display:inline;overflow:visible;enable-background:accumulate"
     d="m 0,4 c 0,18.153961 0,43.296552 0,11 l 64,0 c 0,32.296552 0,7.153961 0,-11 L 32,4 z"
     id="path3786-5" />
  <path
     id="path6538"
     d="m 1.6362304e-8,18 c 0,-4.95108 0,-11.8081509 0,-3 L 64,15 c 0,-8.8081509 0,-1.95108 0,3 l -32,0 z"
     style="color:#000000;fill:#1c5500;fill-opacity:0.21466908000000001;fill-rule:nonzero;stroke:none;stroke-width:1;marker:none;visibility:visible;display:inline;overflow:visible;enable-background:accumulate"
     inkscape:connector-curvature="0"
     sodipodi:nodetypes="cccccc" />
  <path
     style="color:#000000;fill:#6edb3d;fill-opacity:1;fill-rule:nonzero;stroke:none;stroke-width:1;marker:none;visibility:visible;display:inline;overflow:visible;enable-background:accumulate"
     d="M 2,1 0,2 0,4 19.5625,4 39.125,4 64,4 64,2 62,1 39.125,1 19.5625,1 z"
     id="path6688-6"
     inkscape:connector-curvature="0"
     sodipodi:nodetypes="ccccccccccc" />
  <path
     style="fill:#81e057;fill-opacity:1;fill-rule:nonzero"
     d="M 0,3 0,6 2,4 z"
     id="path4298"
     inkscape:connector-curvature="0"
     sodipodi:nodetypes="cccc" />
  <path
     d="M 64,6 62,4 64,3 z"
     id="path3028"
     style="fill:#5dbe32;fill-opacity:1"
     inkscape:connector-curvature="0"
     sodipodi:nodetypes="cccc" />
  <g
     id="g3870"
     transform="translate(-1,0)">
    <rect
       y="0"
       x="9"
       height="11"
       width="4"
       id="rect3872"
       style="color:#000000;fill:#c6e2f8;fill-opacity:1;fill-rule:nonzero;stroke:none;stroke-width:2.28571415000000000;marker:none;visibility:visible;display:inline;overflow:visible;enable-background:accumulate" />
    <path
       style="color:#000000;fill:#1c5500;fill-opacity:0.21466908000000001;fill-rule:nonzero;stroke:none;stroke-width:1;marker:none;visibility:visible;display:inline;overflow:visible;enable-background:accumulate"
       d="m 13,1 0,3.78125 C 13.447171,5.5060967 13.71875,6.3033913 13.71875,7 13.71875,7.6956056 13.446032,8.1672498 13,8.375 L 13,11 9.21875,11 c 0.6048231,0.520892 1.246914,0.994332 1.90625,1.375 C 14.926914,14.570036 18,13.270664 18,9.46875 18,7.7620839 17.370811,5.8533042 16.335855,4.0670776 15.435734,2.91762 14.316763,1.8994722 13,1 z"
       id="path3878"
       inkscape:connector-curvature="0"
       sodipodi:nodetypes="ccscccsscc" />
  </g>
  <g
     transform="translate(36,0)"
     id="g3876">
    <rect
       y="0"
       x="9"
       height="11"
       width="4"
       id="rect3878"
       style="color:#000000;fill:#c6e2f8;fill-opacity:1;fill-rule:nonzero;stroke:none;stroke-width:2.28571415000000000;marker:none;visibility:visible;display:inline;overflow:visible;enable-background:accumulate" />
    <path
       style="color:#000000;fill:#1c5500;fill-opacity:0.21466908000000001;fill-rule:nonzero;stroke:none;stroke-width:1;marker:none;visibility:visible;display:inline;overflow:visible;enable-background:accumulate"
       d="m 13,1 0,3.78125 C 13.447171,5.5060967 13.71875,6.3033913 13.71875,7 13.71875,7.6956056 13.446032,8.1672498 13,8.375 L 13,11 9.21875,11 c 0.6048231,0.520892 1.246914,0.994332 1.90625,1.375 C 14.926914,14.570036 18,13.270664 18,9.46875 18,7.7620839 17.370811,5.8533042 16.335855,4.0670776 15.435734,2.91762 14.316763,1.8994722 13,1 z"
       id="path3884"
       inkscape:connector-curvature="0"
       sodipodi:nodetypes="ccscccsscc" />
  </g>
  <g
     id="g3864"
     transform="translate(43,0)">
    <rect
       style="color:#000000;fill:#c6e2f8;fill-opacity:1;fill-rule:nonzero;stroke:none;stroke-width:2.28571415000000000;marker:none;visibility:visible;display:inline;overflow:visible;enable-background:accumulate"
       id="rect3837"
       width="4"
       height="11"
       x="9"
       y="0" />
    <path
       sodipodi:nodetypes="ccscccsscc"
       inkscape:connector-curvature="0"
       id="path3855"
       d="m 13,1 0,3.78125 C 13.447171,5.5060967 13.71875,6.3033913 13.71875,7 13.71875,7.6956056 13.446032,8.1672498 13,8.375 L 13,11 9.21875,11 c 0.6048231,0.520892 1.246914,0.994332 1.90625,1.375 C 14.926914,14.570036 18,13.270664 18,9.46875 18,7.7620839 17.370811,5.8533042 16.335855,4.0670776 15.435734,2.91762 14.316763,1.8994722 13,1 z"
       style="color:#000000;fill:#1c5500;fill-opacity:0.21466908000000001;fill-rule:nonzero;stroke:none;stroke-width:1;marker:none;visibility:visible;display:inline;overflow:visible;enable-background:accumulate" />
  </g>
  <g
     transform="translate(6,0)"
     id="g3858">
    <rect
       style="color:#000000;fill:#c6e2f8;fill-opacity:1;fill-rule:nonzero;stroke:none;stroke-width:2.28571415000000000;marker:none;visibility:visible;display:inline;overflow:visible;enable-background:accumulate"
       id="rect3860"
       width="4"
       height="11"
       x="9"
       y="0" />
    <path
       sodipodi:nodetypes="ccscccsscc"
       inkscape:connector-curvature="0"
       id="path3866"
       d="m 13,1 0,3.78125 C 13.447171,5.5060967 13.71875,6.3033913 13.71875,7 13.71875,7.6956056 13.446032,8.1672498 13,8.375 L 13,11 9.21875,11 c 0.6048231,0.520892 1.246914,0.994332 1.90625,1.375 C 14.926914,14.570036 18,13.270664 18,9.46875 18,7.7620839 17.370811,5.8533042 16.335855,4.0670776 15.435734,2.91762 14.316763,1.8994722 13,1 z"
       style="color:#000000;fill:#1c5500;fill-opacity:0.21466908000000001;fill-rule:nonzero;stroke:none;stroke-width:1;marker:none;visibility:visible;display:inline;overflow:visible;enable-background:accumulate" />
  </g>
  <path
     style="color:#000000;fill:#336f17;fill-opacity:0.58012533;fill-rule:nonzero;stroke:none;stroke-width:1;marker:none;visibility:visible;display:inline;overflow:visible;enable-background:accumulate"
     d="M 32 22 C 30.539472 22 29.330349 23.055248 29.0625 24.4375 C 24.976936 25.694615 22 29.502092 22 34 L 22 40 L 19 43 L 20 46 L 29.1875 46 L 32 46 L 34.8125 46 L 44 46 L 45 43 L 42 40 L 42 34 C 42 29.502092 39.023064 25.694615 34.9375 24.4375 C 34.669651 23.055248 33.460528 22 32 22 z M 29.1875 48 C 29.603011 49.158348 30.698679 50 32 50 C 33.301321 50 34.396989 49.158348 34.8125 48 L 32 48 L 29.1875 48 z "
     id="path4042" />
</svg>

<svg xmlns="http://www.w3.org/2000/svg" xmlns:xlink="http://www.w3.org/1999/xlink" viewBox="0 0 64 64"><defs><path id="1" d="m9 0h4v11h-4z" fill="#c6e2f8" color="#000"/><path id="2" d="m13 1v3.781c.447.725.719 1.522.719 2.219 0 .696-.273 1.167-.719 1.375v2.625h-3.781c.605.521 1.247.994 1.906 1.375 3.802 2.195 6.875.896 6.875-2.906 0-1.707-.629-3.615-1.664-5.402-.9-1.149-2.02-2.168-3.336-3.067" fill="#1c5500" fill-opacity=".215" color="#000"/><linearGradient id="0" gradientUnits="userSpaceOnUse" y1="59" x2="0" y2="15"><stop stop-color="#ebebeb"/><stop offset=".5" stop-color="#ebebeb"/><stop offset=".503" stop-color="#d6d6d6"/><stop offset="1" stop-color="#d6d6d6"/></linearGradient></defs><g color="#000"><path d="m0 11h64v50l-3 3h-58l-3-3z" fill="#48872b"/><path d="m6 15v44h24l33 2-3-7v-39z" fill="#1c5500" fill-opacity=".215"/><path d="m5 14v44h54v-44z" fill="#bcbcbc"/><path d="m5 15v44h25l29-6v-38z" fill="url(#0)"/><path d="m59 53l-29 6 28-7z" fill="#a6a6a6"/><path d="m0 4c0 18.15 0 43.3 0 11h64c0 32.3 0 7.154 0-11h-32z" fill="#4fa728"/><path d="m0 18c0-4.951 0-11.808 0-3h64c0-8.808 0-1.951 0 3h-32z" fill="#1c5500" fill-opacity=".215"/><path d="m2 1l-2 1v2h19.563 19.563 24.875v-2l-2-1h-22.875-19.563z" fill="#6edb3d"/></g><path d="m0 3v3l2-2z" fill="#81e057"/><path d="m64 6l-2-2 2-1z" fill="#5dbe32"/><g transform="translate(-1)"><use xlink:href="#1"/><path d="m13 1v3.781c.447.725.719 1.522.719 2.219 0 .696-.273 1.167-.719 1.375v2.625h-3.781c.605.521 1.247.994 1.906 1.375 3.802 2.195 6.875.896 6.875-2.906 0-1.707-.629-3.615-1.664-5.402-.9-1.149-2.02-2.168-3.336-3.067" fill="#1c5500" fill-opacity=".215" color="#000"/></g><g transform="translate(36)"><use xlink:href="#1"/><use xlink:href="#2"/></g><g transform="translate(43)"><use xlink:href="#1"/><use xlink:href="#2"/></g><g transform="translate(6)"><use xlink:href="#1"/><use xlink:href="#2"/></g><path d="m32 22c-1.461 0-2.67 1.055-2.938 2.438-4.086 1.257-7.06 5.065-7.06 9.563v6l-3 3 1 3h9.188 2.813 2.813 9.188l1-3-3-3v-6c0-4.498-2.977-8.305-7.06-9.563-.268-1.382-1.477-2.438-2.938-2.438m-2.813 26c.416 1.158 1.511 2 2.813 2 1.301 0 2.397-.842 2.813-2h-2.813-2.813" fill="#336f17" fill-opacity=".58" color="#000"/></svg>
